images/icons/carpet.svg

<svg height="32pt" viewBox="0 0 32 32" width="32pt" xmlns="http://www.w3.org/2000/svg"><g fill="#fff"><path d="m30.5 5h-15.5v1h2.292969l-1.648438 1.644531.710938.710938 2.351562-2.355469h2.085938l-3.148438 3.144531.710938.710938 3.851562-3.855469h2.085938l-3.148438 3.144531.710938.710938 3.851562-3.855469h2.085938l-2.148438 2.144531.710938.710938 2.851562-2.855469h.792969v1.292969l-7.855469 7.851562.710938.710938 7.144531-7.148438v2.085938l-7.855469 7.851562.710938.710938 7.144531-7.148438v2.085938l-8.355469 8.351562.710938.710938 7.644531-7.648438v2.085938l-10.207031 10.207031h-2.085938l3.648438-3.644531-.710938-.710938-4.351562 4.355469h-2.085938l.648438-.644531-.710938-.710938-1.351562 1.355469h-6.292969c-1.378906 0-2.5-1.121094-2.5-2.5s1.121094-2.5 2.5-2.5h2c.277344 0 .5.222656.5.5s-.222656.5-.5.5h-2.5c-.277344 0-.5.222656-.5.5v2c0 .277344.222656.5.5.5h2.5c1.933594-.003906 3.496094-1.566406 3.5-3.5v-19c-.003906-1.933594-1.566406-3.496094-3.5-3.5h-2c-3.035156.003906-5.496094 2.464844-5.5 5.5v19c.003906 3.035156 2.464844 5.496094 5.5 5.5h24c.277344 0 .5-.222656.5-.5v-25c0-.277344-.222656-.5-.5-.5zm-.5 23h-1.792969l1.792969-1.792969zm0-8.792969v2.085938l-3.355469 3.351562.710938.710938 2.644531-2.648438v2.085938l-3.207031 3.207031h-2.085938l1.648438-1.644531-.710938-.710938-2.351562 2.355469h-2.085938zm-28-12.707031c.003906-2.484375 2.015625-4.496094 4.5-4.5h2c1.378906 0 2.5 1.121094 2.5 2.5v1.054688c-.65625-.675782-1.558594-1.054688-2.5-1.054688h-1.5v1h1.5c1.378906 0 2.5 1.121094 2.5 2.5v.554688c-.65625-.675782-1.558594-1.054688-2.5-1.054688h-1.5v1h1.5c1.378906 0 2.5 1.121094 2.5 2.5v.554688c-.65625-.675782-1.558594-1.054688-2.5-1.054688h-1.5v1h1.5c1.378906 0 2.5 1.121094 2.5 2.5v.554688c-.65625-.675782-1.558594-1.054688-2.5-1.054688h-1.5v1h1.5c1.378906 0 2.5 1.121094 2.5 2.5v.554688c-.65625-.675782-1.558594-1.054688-2.5-1.054688h-1.5v1h1.5c1.378906 0 2.5 1.121094 2.5 2.5v1.054688c-.65625-.675782-1.558594-1.054688-2.5-1.054688h-2c-1.792969 0-3.472656.875-4.5 2.339844zm28 23.5h-23.5c-2.484375 0-4.5-2.015625-4.5-4.5s2.015625-4.5 4.5-4.5h2c1.378906 0 2.5 1.121094 2.5 2.5s-1.121094 2.5-2.5 2.5h-2v-1h2c.828125 0 1.5-.671875 1.5-1.5s-.671875-1.5-1.5-1.5h-2c-1.933594 0-3.5 1.566406-3.5 3.5s1.566406 3.5 3.5 3.5h23.5zm0 0"/><path d="m13 5h1v1h-1zm0 0"/><path d="m5 4.5h1v1h-1zm0 0"/><path d="m5 7.5h1v1h-1zm0 0"/><path d="m5 10.5h1v1h-1zm0 0"/><path d="m5 13.5h1v1h-1zm0 0"/><path d="m5 16.5h1v1h-1zm0 0"/><path d="m15.644531 14.644531 4.5-4.496093.707031.703124-4.5 4.5zm0 0"/><path d="m13.144531 17.144531 1.5-1.5.707031.707031-1.5 1.5zm0 0"/><path d="m13.144531 13.644531 3.5-3.5.707031.707031-3.5 3.5zm0 0"/><path d="m13.144531 10.144531 1.5-1.5.707031.707031-1.5 1.5zm0 0"/><path d="m13.644531 20.144531 10.996094-10.996093.707031.707031-10.996094 10.996093zm0 0"/><path d="m15.144531 22.144531 5.996094-5.996093.707031.707031-5.996094 5.996093zm0 0"/><path d="m13.144531 24.144531 1-1 .707031.707031-1 1zm0 0"/><path d="m15.140625 25.644531 6-6 .707031.707031-6 6zm0 0"/></g></svg>

<?xml version="1.0" encoding="UTF-8"?>
<svg xmlns="http://www.w3.org/2000/svg" xmlns:xlink="http://www.w3.org/1999/xlink" width="32pt" height="32pt" viewBox="0 0 32 32" version="1.1">
<g id="surface1">
<path style=" stroke:none;fill-rule:nonzero;fill:rgb(255%,255%,255%);fill-opacity:1;" d="M 30.5 5 L 15 5 L 15 6 L 17.292969 6 L 15.644531 7.644531 L 16.355469 8.355469 L 18.707031 6 L 20.792969 6 L 17.644531 9.144531 L 18.355469 9.855469 L 22.207031 6 L 24.292969 6 L 21.144531 9.144531 L 21.855469 9.855469 L 25.707031 6 L 27.792969 6 L 25.644531 8.144531 L 26.355469 8.855469 L 29.207031 6 L 30 6 L 30 7.292969 L 22.144531 15.144531 L 22.855469 15.855469 L 30 8.707031 L 30 10.792969 L 22.144531 18.644531 L 22.855469 19.355469 L 30 12.207031 L 30 14.292969 L 21.644531 22.644531 L 22.355469 23.355469 L 30 15.707031 L 30 17.792969 L 19.792969 28 L 17.707031 28 L 21.355469 24.355469 L 20.644531 23.644531 L 16.292969 28 L 14.207031 28 L 14.855469 27.355469 L 14.144531 26.644531 L 12.792969 28 L 6.5 28 C 5.121094 28 4 26.878906 4 25.5 C 4 24.121094 5.121094 23 6.5 23 L 8.5 23 C 8.777344 23 9 23.222656 9 23.5 C 9 23.777344 8.777344 24 8.5 24 L 6 24 C 5.722656 24 5.5 24.222656 5.5 24.5 L 5.5 26.5 C 5.5 26.777344 5.722656 27 6 27 L 8.5 27 C 10.433594 26.996094 11.996094 25.433594 12 23.5 L 12 4.5 C 11.996094 2.566406 10.433594 1.003906 8.5 1 L 6.5 1 C 3.464844 1.003906 1.003906 3.464844 1 6.5 L 1 25.5 C 1.003906 28.535156 3.464844 30.996094 6.5 31 L 30.5 31 C 30.777344 31 31 30.777344 31 30.5 L 31 5.5 C 31 5.222656 30.777344 5 30.5 5 Z M 30 28 L 28.207031 28 L 30 26.207031 Z M 30 19.207031 L 30 21.292969 L 26.644531 24.644531 L 27.355469 25.355469 L 30 22.707031 L 30 24.792969 L 26.792969 28 L 24.707031 28 L 26.355469 26.355469 L 25.644531 25.644531 L 23.292969 28 L 21.207031 28 Z M 2 6.5 C 2.003906 4.015625 4.015625 2.003906 6.5 2 L 8.5 2 C 9.878906 2 11 3.121094 11 4.5 L 11 5.554688 C 10.34375 4.878906 9.441406 4.5 8.5 4.5 L 7 4.5 L 7 5.5 L 8.5 5.5 C 9.878906 5.5 11 6.621094 11 8 L 11 8.554688 C 10.34375 7.878906 9.441406 7.5 8.5 7.5 L 7 7.5 L 7 8.5 L 8.5 8.5 C 9.878906 8.5 11 9.621094 11 11 L 11 11.554688 C 10.34375 10.878906 9.441406 10.5 8.5 10.5 L 7 10.5 L 7 11.5 L 8.5 11.5 C 9.878906 11.5 11 12.621094 11 14 L 11 14.554688 C 10.34375 13.878906 9.441406 13.5 8.5 13.5 L 7 13.5 L 7 14.5 L 8.5 14.5 C 9.878906 14.5 11 15.621094 11 17 L 11 17.554688 C 10.34375 16.878906 9.441406 16.5 8.5 16.5 L 7 16.5 L 7 17.5 L 8.5 17.5 C 9.878906 17.5 11 18.621094 11 20 L 11 21.054688 C 10.34375 20.378906 9.441406 20 8.5 20 L 6.5 20 C 4.707031 20 3.027344 20.875 2 22.339844 Z M 30 30 L 6.5 30 C 4.015625 30 2 27.984375 2 25.5 C 2 23.015625 4.015625 21 6.5 21 L 8.5 21 C 9.878906 21 11 22.121094 11 23.5 C 11 24.878906 9.878906 26 8.5 26 L 6.5 26 L 6.5 25 L 8.5 25 C 9.328125 25 10 24.328125 10 23.5 C 10 22.671875 9.328125 22 8.5 22 L 6.5 22 C 4.566406 22 3 23.566406 3 25.5 C 3 27.433594 4.566406 29 6.5 29 L 30 29 Z M 30 30 "/>
<path style=" stroke:none;fill-rule:nonzero;fill:rgb(255%,255%,255%);fill-opacity:1;" d="M 13 5 L 14 5 L 14 6 L 13 6 Z M 13 5 "/>
<path style=" stroke:none;fill-rule:nonzero;fill:rgb(255%,255%,255%);fill-opacity:1;" d="M 5 4.5 L 6 4.5 L 6 5.5 L 5 5.5 Z M 5 4.5 "/>
<path style=" stroke:none;fill-rule:nonzero;fill:rgb(255%,255%,255%);fill-opacity:1;" d="M 5 7.5 L 6 7.5 L 6 8.5 L 5 8.5 Z M 5 7.5 "/>
<path style=" stroke:none;fill-rule:nonzero;fill:rgb(255%,255%,255%);fill-opacity:1;" d="M 5 10.5 L 6 10.5 L 6 11.5 L 5 11.5 Z M 5 10.5 "/>
<path style=" stroke:none;fill-rule:nonzero;fill:rgb(255%,255%,255%);fill-opacity:1;" d="M 5 13.5 L 6 13.5 L 6 14.5 L 5 14.5 Z M 5 13.5 "/>
<path style=" stroke:none;fill-rule:nonzero;fill:rgb(255%,255%,255%);fill-opacity:1;" d="M 5 16.5 L 6 16.5 L 6 17.5 L 5 17.5 Z M 5 16.5 "/>
<path style=" stroke:none;fill-rule:nonzero;fill:rgb(255%,255%,255%);fill-opacity:1;" d="M 15.644531 14.644531 L 20.144531 10.148438 L 20.851562 10.851562 L 16.351562 15.351562 Z M 15.644531 14.644531 "/>
<path style=" stroke:none;fill-rule:nonzero;fill:rgb(255%,255%,255%);fill-opacity:1;" d="M 13.144531 17.144531 L 14.644531 15.644531 L 15.351562 16.351562 L 13.851562 17.851562 Z M 13.144531 17.144531 "/>
<path style=" stroke:none;fill-rule:nonzero;fill:rgb(255%,255%,255%);fill-opacity:1;" d="M 13.144531 13.644531 L 16.644531 10.144531 L 17.351562 10.851562 L 13.851562 14.351562 Z M 13.144531 13.644531 "/>
<path style=" stroke:none;fill-rule:nonzero;fill:rgb(255%,255%,255%);fill-opacity:1;" d="M 13.144531 10.144531 L 14.644531 8.644531 L 15.351562 9.351562 L 13.851562 10.851562 Z M 13.144531 10.144531 "/>
<path style=" stroke:none;fill-rule:nonzero;fill:rgb(255%,255%,255%);fill-opacity:1;" d="M 13.644531 20.144531 L 24.640625 9.148438 L 25.347656 9.855469 L 14.351562 20.851562 Z M 13.644531 20.144531 "/>
<path style=" stroke:none;fill-rule:nonzero;fill:rgb(255%,255%,255%);fill-opacity:1;" d="M 15.144531 22.144531 L 21.140625 16.148438 L 21.847656 16.855469 L 15.851562 22.851562 Z M 15.144531 22.144531 "/>
<path style=" stroke:none;fill-rule:nonzero;fill:rgb(255%,255%,255%);fill-opacity:1;" d="M 13.144531 24.144531 L 14.144531 23.144531 L 14.851562 23.851562 L 13.851562 24.851562 Z M 13.144531 24.144531 "/>
<path style=" stroke:none;fill-rule:nonzero;fill:rgb(255%,255%,255%);fill-opacity:1;" d="M 15.140625 25.644531 L 21.140625 19.644531 L 21.847656 20.351562 L 15.847656 26.351562 Z M 15.140625 25.644531 "/>
</g>
</svg>
